src/2-landmarks/stop.svg

<svg width="1300" height="1000" viewBox="0 0 1300 1000" fill="none" xmlns="http://www.w3.org/2000/svg"><path d="M0 900h595a5 5 0 0 1 5 5v95H0V900Zm0-233v-7h33v-8c0-8.284-6.716-15-15-15H0v-7h20c11.046 0 20 8.954 20 20v10h140c11.046 0 20 8.954 20 20v20c0 11.046-8.954 20-20 20h-10v180h-7V720H0v-7h178c8.284 0 15-6.716 15-15v-16c0-8.284-6.716-15-15-15H0Z" fill="#000"/></svg>

<svg width="1300" height="1000" viewBox="0 0 1300 1000" fill="none" xmlns="http://www.w3.org/2000/svg">
<path d="M0 900H595C597.761 900 600 902.239 600 905V1000H0V900Z" fill="black"/>
<path d="M0 667V660H33V652C33 643.716 26.2843 637 18 637H0V630H20C31.0457 630 40 638.954 40 650V660H180C191.046 660 200 668.954 200 680V700C200 711.046 191.046 720 180 720H170V900H163V720H0V713H178C186.284 713 193 706.284 193 698V682C193 673.716 186.284 667 178 667H0Z" fill="black"/>
</svg>
